X:4614
T:New Year's Cotillion
O:england
M:3/4
L:1/8
Q:180
C:Jesse Owsley
K:D
(F>E)|"D"D3EF>A|"A"e3cd>e|"Bm"f2d2A2|"F#m"F4(3DEF)|"G"G3AB>d|"D"AF3(3DEF
)|
"G"G3AB>G|"A"E4F>E|"D"D3(EF>A)|"A"e3cd>e|"Bm"f2d2A2|"F#m"F4(3DEF)|
"G"G3AB>d|"D"AF2DE>F|"A"E3{FE}>D>C|1"D"D4(F>E):|2 "D"D>E F>A d>e||
"D"fa3a>b|a2g2f2|"A"eg3g>a|g2f2e2
|"Bm"f2d2A2|"F#m"f2c2A2|"G"G2A2B2|"A"E4F>E|"D"D3EF>A|"A"e3cd>e|"Bm"f2d2A
2
|"F#m"F4(3DEF)|"G"G3AB>d|"D"AF2DE>F|"A"E3({FE}>D)>C|1 "D"D>E F>A d>e:||
2 "D"D4:||


